X:1
T:Title
%%score ( 1 2 ) ( 3 4 )
L:1/8
Q:1/4=108
M:4/4
K:D
V:1 treble nm="Drawbar Organ, Soprano"
V:2 treble 
V:3 bass nm="Choir Pad, Bass"
V:4 bass 
V:1
 D2 F2 [EA]2 d2 | B2 B2 A2 [DA]2 | AG F2 GA B2 | G2 [DF]2 [CE]2 [CE]2 | EF [EG]2 [EG]2 [DF]2 | %5
w: By~Adapted~from~Isaac~Watts,~1709 * * *|||||
 GA [GB]2 [GB]2 [FA]2 | [Dd]2 F2 B2 [FA]2 | [DF]2 [CE]2- [CE]D D2 | [Dd]2 c2 A2 G2 | B2 A2 F2 D2 | %10
w: |||||
 d2 c2 A2 G2 | B2 A2 F2 D2 | [Dd]2 c2 A2 G2 | B2 A2 F2 D2 | D2 [DF]2 [EA]2 [GB]2 | %15
w: |||||
 [Gc]2 [Fd]2 [Fd]2 z2 | d2 c2 A2 G2 | B2 A2 G2 D2 | D2 F2 A2 B2 | c2 d2 d2 z2 |] %20
w: |||||
V:2
 z4 z2 D2- | D2 D4 z2 | E2 D4 D2- | D2 z2 z4 | x8 | x8 | z2 D4 z2 | x8 | z2 E4 D2- | D2 D4 z2 | %10
 x8 | x8 | z2 E4 D2- | D2 D4 z2 | x8 | x8 | x8 | x8 | x8 | x8 |] %20
V:3
 z2 D2 z2 B,2 | z2 G,2 z4 | z4 z2 G,2- | G,2 z2 z4 | z2 E,F, G,A, B,2 | z2 G,A, B,C D2 | %6
 B,2 A,2 ^G,2 A,2 | [A,,A,]2 [A,,G,]2- [A,,G,][D,F,] [D,F,]2 | D,2- [D,-A,]2 [D,-C]2 [D,-B,]2 | %9
 [D,G,]2 [D,F,]6 | z8 | z8 | D,2- [D,-A,]2 [D,-C]2 [D,-B,]2 | [D,G,]2 [D,F,]6 | D,2 D2 C2 B,2 | %15
 [D,^A,]2 [D,=A,]2 [D,A,]2 z2 | z8 | z8 | z8 | z8 |] %20
V:4
 D,2 D,2- [D,C]2 D,2- | [D,G,]2 D,2- [D,F,]2 [D,F,]2 | [C,A,]2 [D,A,]2 [B,,G,]2 G,,2 | %3
 B,,2 [A,,A,]4 [A,,A,]2 | x8 | x8 | x8 | x8 | F,2 z2 z4 | x8 | x8 | x8 | F,2 z2 z4 | x8 | z2 D,6 | %15
 x8 | x8 | x8 | x8 | x8 |] %20

